X:1
T:Title
%%score { ( 1 3 4 ) | ( 2 5 ) }
L:1/8
Q:1/4=100
M:4/4
K:Db
V:1 treble nm="Grand Piano"
V:3 treble 
V:4 treble 
V:2 bass 
V:5 bass 
V:1
 F4 E2 A2 | z4 z2 =A2 | B4 c4 | [CB]4 [CA]4 | [DA]4 [=DB]2 [DF]2 | [CG]6 [GA]2 | [GB]4 [Gd]4 | %7
w: George~F.~Ferreira * *|||||||
 [Fd]6 z2 | [Fd]4 c2 d2 | B4 [AB]4 | [=Ge]4 [Gd]4 | d4 c4 | [Fd]4 D2 [=G,DE]2 | [A,DF]4 [DA]4 | %14
w: |||||||
 A4 A4 | A6 z2 |] %16
w: ||
V:2
 [D,A,D]4 [A,C]2 [G,A,C]2 | [F,A,D]4 [_F,A,]4 | [E,=G,D]4 [E,G,D]4 | [A,,G,]8 | %4
 [A,,F,]4 [A,,F,]2 [A,,F,]2 | [E,A,]6 [E,C]2 | [D,D]4 [D,B,]4 | [D,A,]6 z2 | %8
 [D,A,]4 [F,=A,E]2 [F,A,E]2 | [G,B,D]4 [F,=D]4 | [E,E]4 [E,B,]4 | B,4 A,4 | [D,A,]4 B,,2 B,,2 | %13
 A,,4 [A,,F,]4 | [A,,E,]4 B,2 z2 | [D,F,D]6 z2 |] %16
V:3
 x8 | A6 z2 | x8 | x8 | x8 | x8 | x8 | x8 | x8 | x8 | x8 | G8 | x8 | x8 | D2 C2 z2 C2 | x8 |] %16
V:4
 x8 | z4 D4 | x8 | x8 | x8 | x8 | x8 | x8 | x8 | x8 | x8 | x8 | x8 | x8 | x8 | x8 |] %16
V:5
 x8 | x8 | x8 | x8 | x8 | x8 | x8 | x8 | x8 | x8 | x8 | A,,8 | x8 | x8 | z4 [A,,G,]4 | x8 |] %16

